!!!!SEGMENT: pl-gd--ee-1638--003-021_marenzio-luca--madrigali-a-quatro-voci-lasso-che-pur-da-l-uno-a-l-altro-sole.krn
!!!cenid: 15xx:995
!!!COM: Marenzio, Luca
!!!COM-rismID: pe30003955
!!!CDT: ~1553-1599/08/22
!!!CNT: Italian
!!!GTL: Madrigali a quatro voci
!!!OTL: Lasso che pur da l’uno a l’altro sole
!!!OMV: 021
!!!PDT: 1587
!!!AGN:
!!!SMS-siglum: PL-GD
!!!SMS-shelfmark: Ee 1638
!!!SMS-shelfwork: 003-021 G
!!!SMS-variant:
!!!SMS-altvar:
!!!NIFC-rismSourceID: 1001202747
!!!NIFC-rismChildID: 990039322
!!!NIFC-islandoraID: pl-gd:57883
!!!URL-pdf-islandora: https://repozytorium.nifc.pl/islandora/object/pl-gd%3A57883/datastream/PDF/view
!!!URL-scan: https://polish.musicsources.pl/pl/lokalizacje/galeria/klocki-introligatorskie/655 @EN{Scan on Polish Music Sources Website} @PL{Skany w portalu Dziedzictwo Muzyki Polskiej w otwartym dostępie}
!!!ONB-nifc: UWAGA: zbiór na stronach: Canto: s. 637-653, Alto: s. do 486-501, Tenore: s. do 334-349, Bassus: s. do 182-197. Uwaga: utwory podzielone wg tytułów w spisach treści dostępnych na końcu każdej księgi głosowej.
!!!AIN: 1 alto 1 bass 1 soprn 1 tenor
!!!key:
**kern	**text	**kern	**text	**kern	**text	**kern	**text
*part4	*part4	*part3	*part3	*part2	*part2	*part1	*part1
*staff4	*staff4	*staff3	*staff3	*staff2	*staff2	*staff1	*staff1
*I"BASSO	*	*I"TENORE	*	*I"ALTO	*	*I"CANTO	*
*I'B	*	*I'T	*	*I'A	*	*I'S	*
*ICvox	*	*ICvox	*	*ICvox	*	*ICvox	*
*Ibass	*	*Itenor	*	*Ialto	*	*Isoprn	*
*clefF3	*	*clefC3	*	*clefC2	*	*clefG2	*
*k[b-]	*	*k[b-]	*	*k[b-]	*	*k[b-]	*
*d:	*	*d:	*	*d:	*	*d:	*
*M2/1	*	*M2/1	*	*M2/1	*	*M2/1	*
*met(C|)	*	*met(C|)	*	*met(C|)	*	*met(C|)	*
=1-	=1-	=1-	=1-	=1-	=1-	=1-	=1-
*xywh-#192:4552,625,3476,874	*	*xywh-#344:4648,546,3400,865	*	*xywh-#496:4555,508,3383,996	*	*xywh-#648:4624,555,3310,791	*
!LO:TX:t=P:problem: podwójnie zapisany bemol: BB- B-	!	!	!	!LO:TX:t=P:problem: podwójnie zapisany bemol: B- b-	!	!	!
0d	LAſ-	0f	Laſ-	1r	.	0dd	Laſ-
.	.	.	.	0a	Laſ-	.	.
=2-	=2-	=2-	=2-	=2-	=2-	=2-	=2-
1A	-ſo	1e	-ſo	.	.	0cc	-ſo
2c\	che	2e\	che	1g	-ſo	.	.
1c\	pur	1e\	pur	.	.	.	.
=3-	=3-	=3-	=3-	=3-	=3-	=3-	=3-
.	.	.	.	2g\	che	0r	.
!LO:N:acc=#	!	!	!	!	!	!	!
2Bn\	da	2d\	da	1g	pur	.	.
2c\	l'u-	2e\	l'u-	.	.	.	.
2A\	-no a	2c/	-no a	2f#X\	da	.	.
=4-	=4-	=4-	=4-	=4-	=4-	=4-	=4-
2B-y\	l'al-	2d\	l'al-	2g\	l'u-	1r	.
2c\	-tro	2e\	-tro	2a\	-no a	.	.
2.d\	ſo-	2.f\	ſo-	4b-\	l'al-	0dd	Laſ-
.	.	.	.	4a\	-tro	.	.
.	.	.	.	2.a\	ſo-	.	.
4c\	.	4e\	.	.	.	.	.
=5-	=5-	=5-	=5-	=5-	=5-	=5-	=5-
1B-	.	1d	.	.	.	.	.
.	.	.	.	8g\	.	.	.
.	.	.	.	8fny\	.	.	.
.	.	.	.	2g\	.	.	.
1A	-le	1e	-le	1a	-le	1cc	-ſo
=6-	=6-	=6-	=6-	=6-	=6-	=6-	=6-
0d	Laſ-	1.f	Laſ-	2r	.	2r	.
.	.	.	.	2a\	che	2f/	che
.	.	.	.	1.a	pur-	1.ff	pur
.	.	2d\	-ſo	.	.	.	.
=7-	=7-	=7-	=7-	=7-	=7-	=7-	=7-
1c	-ſo	00r	.	.	.	.	.
!	!	!	!	!LO:SIC:v:t=custos a	!	!	!
.	.	.	.	2g\	-da	2ee\	da
*	*	*	*	*xywh-#496:4524,1255,3456,726	*	*	*
1r	.	.	.	2a\	l'u-	2ff\	l'u-
.	.	.	.	2b-\	-no a	2dd\	-no a
=8-	=8-	=8-	=8-	=8-	=8-	=8-	=8-
!LO:SIC:v:t=custos c	!	!	!	!	!	!	!
*xywh-#192:4521,1301,3445,707	*	*	*	*	*	*	*
0r	.	.	.	2cc\	l'al-	2ee\	l'al-
.	.	.	.	2a\	-tro	2ff\	-tro
.	.	.	.	2.b-\	ſo-	4gg\	ſ-
.	.	.	.	.	.	4ff\	.
.	.	.	.	.	.	2.ff\	.
.	.	.	.	4a\	.	.	.
!LO:LB:g=original	!	!	!	!	!	!	!
=9-	=9-	=9-	=9-	=9-	=9-	=9-	=9-
!	!	!LO:SIC:v:t=custos g	!	!	!	!	!
*	*	*xywh-#344:4700,1237,3338,680	*	*	*	*	*
2r	.	0r	.	1g	.	.	.
.	.	.	.	.	.	8ee\	.
.	.	.	.	.	.	8dd\	.
!	!	!	!	!	!	!LO:SIC:v:t=custos ff	!
2c\	E	.	.	.	.	2ee\	.
!	!	!	!	!	!	!LO:LB:g=original	!
*	*	*	*	*	*	*xywh-#648:4598,1254,3362,606	*
4d\	da	.	.	2f\	-le	1ff	-le
4c\	l'un'	.	.	.	.	.	.
4B-\	om-	.	.	2d/	E	.	.
4A\	-bra a	.	.	.	.	.	.
!	!	!LO:LB:g=original	!	!	!	!	!
=10-	=10-	=10-	=10-	=10-	=10-	=10-	=10-
1G	l'al-	2r	.	4B-/	da	1r	.
.	.	.	.	4c/	l'un'	.	.
.	.	2g\	E	4d/	om-	.	.
.	.	.	.	4e/	-bra a	.	.
2F/	-tra E	4a\	da	2f\	l'al-	2r	.
.	.	4g\	l'un'	.	.	.	.
2F/	da	4f\	om-	2a\	-tra	2cc\	E
.	.	4e\	-bra a	.	.	.	.
=11-	=11-	=11-	=11-	=11-	=11-	=11-	=11-
4B-\	l'un'	1d	l'al-	1r	.	4dd\	da
4A\	õ(m)-	.	.	.	.	4cc\	l'un'
4G\	-bra a	.	.	.	.	4b-/	om-
4F/	l'al-	.	.	.	.	4a/	-bra a
1E-X	-tr'	2e-X\	-tra hò	2r	.	1g	l'al-
.	.	2B-/	già'l	2g\	E	.	.
=12-	=12-	=12-	=12-	=12-	=12-	=12-	=12-
1D	hò	2d\	piu	4a\	da	2f/	-tra
.	.	.	.	4g\	l'un'	.	.
.	.	1d	cor-	4f\	om-	2a/	hò
!	!	!	!	!LO:SIC:v:t=custos d	!	!	!
.	.	.	.	4e/	-bra a	.	.
*	*	*	*	*xywh-#496:4555,1733,3425,768	*	*	*
1G	già'l	.	.	2d/	l'al-	1.b-	già'l
.	.	4c/	.	2e/	-tr'hò	.	.
.	.	4B-/	.	.	.	.	.
=13-	=13-	=13-	=13-	=13-	=13-	=13-	=13-
1F	piu	2.c/	.	1f	già'l	.	.
.	.	.	.	.	.	2.a/	piu
.	.	4A/	.	.	.	.	.
1B-	cor-	2.d\	.	2f\	piu	.	.
.	.	.	.	.	.	8g/	cor-
.	.	.	.	.	.	8f/	.
.	.	.	.	1d/	cor-	2g/	.
.	.	4eny\	.	.	.	.	.
=14-	=14-	=14-	=14-	=14-	=14-	=14-	=14-
1A	-ſo	2f\	.	.	.	1a	-ſo
.	.	2e\	-ſo	2c#X/	-ſo	.	.
2D/	Di	4r	.	2r	.	2a/	Di
!	!	!LO:SIC:v:t=custos g	!	!	!	!	!
.	.	4f#X\	Di	.	.	.	.
!	!	!LO:LB:g=original	!	!	!	!LO:N:acc=#	!
*	*	*xywh-#344:4669,1855,3317,587	*	*	*	*	*
1G\	queſ-	1g\	queſ-	2d/	Di	1bn\	queſ-
=15-	=15-	=15-	=15-	=15-	=15-	=15-	=15-
.	.	.	.	2d/	queſ-	.	.
!LO:SIC:v:t=custos D	!	!	!	!	!	!	!
2Eny/	-ta	4G/	-ta	2e/	-ta	2cc\	-ta
.	.	2c/	mor-	.	.	.	.
!LO:LB:g=original	!	!	!	!	!	!	!
*xywh-#192:4468,1821,3434,697	*	*	*	*	*	*	*
1D	mor-	.	.	1f	mor-	1dd	mor-
.	.	8B-/	.	.	.	.	.
.	.	8A/	.	.	.	.	.
!	!	!LO:N:acc=#	!	!	!	!	!
.	.	2Bn/	.	.	.	.	.
=16-	=16-	=16-	=16-	=16-	=16-	=16-	=16-
2C/	-te	1c	-te	1e	-te	1g	-te
4c\	che	.	.	.	.	.	.
4c\	ſi	.	.	.	.	.	.
!LO:N:acc=#	!	!	!	!	!	!LO:SIC:v:t=custos cc	!
4Bn\	chia-	1r	.	4g\	che	1r	.
4c\	-ma	.	.	4g\	fi	.	.
2d\	vi-	.	.	4f#X\	chia-	.	.
.	.	.	.	4g\	-ma	.	.
!	!	!	!	!	!	!LO:LB:g=original	!
=17-	=17-	=17-	=17-	=17-	=17-	=17-	=17-
*	*	*	*	*	*	*xywh-#648:4608,1768,3434,637	*
1c	-ta	2r	.	4a\	vi-	2cc\	Di
.	.	.	.	8g\	.	.	.
.	.	.	.	8fny\	.	.	.
.	.	4c/	che	4.e/	.	2.gg\	queſ-
.	.	4c/	fi	.	.	.	.
.	.	.	.	8cny/	.	.	.
!	!	!LO:N:acc=#	!	!	!	!	!
1G	hò-	4Bn/	chia-	4d/	.	.	.
.	.	4c/	-ma	2c/	.	4ee\	-ta
.	.	2d\	vi-	.	.	2dd\	mor-
!	!	!	!	!LO:SIC:v:t=custos g	!	!	!
!	!	!	!	!LO:N:acc=#	!	!	!
.	.	.	.	4Bn/	-ta	.	.
=18-	=18-	=18-	=18-	=18-	=18-	=18-	=18-
*	*	*	*	*xywh-#496:4524,2304,3425,685	*	*	*
1c	-già'l	1e	-ta	2r	.	1cc	-te
.	.	.	.	4g\	che	.	.
.	.	.	.	4g\	fi	.	.
1A	più	2r	.	4f#X\	chia-	2r	.
.	.	.	.	2g\	-ma	.	.
*	*	*	*ij	*	*	*	*
.	.	4c/	che	.	.	4cc\	che
.	.	4c/	fi	4f#X\	vi-	4cc\	ſi
=19-	=19-	=19-	=19-	=19-	=19-	=19-	=19-
!	!	!	!	!	!	!LO:N:acc=#	!
1G	cor-	4d\	chia-	2g\	-ta	4bn/	chia-
.	.	4c/	-ma	.	.	4cc\	-ma
!	!	!LO:N:acc=#	!	!	!	!	!
.	.	2Bn/	vi-	2G/	Di	2dd\	vi-
1F	-ſo	2c/	-ta	4A/	que-	2ff\	-ta
.	.	.	.	4B-y/	.	.	.
*	*	*	*Xij	*	*	*	*
!	!	!LO:SIC:v:t=custos G	!	!	!	!	!
.	.	2A/	Di	4c/	.	2f/	Di
.	.	.	.	4d/	.	.	.
!	!	!LO:LB:g=original	!	!	!	!	!
=20-	=20-	=20-	=20-	=20-	=20-	=20-	=20-
*	*	*xywh-#344:4648,2391,3420,669	*	*	*	*	*
2C/	Di	2G/	queſ-	2e/	.	1.cc	queſ-
1F	queſ-	1A	-ta	2fny\	-ſta	.	.
*	*	*	*	*lig	*	*	*
.	.	.	.	1f	mor-	.	.
2D/	-ta	2.B-y/	mor-	.	.	2dd\	-ta
=21-	=21-	=21-	=21-	=21-	=21-	=21-	=21-
1C	mor-	.	.	1cc	.	1ee-X	mor-
.	.	8A/	.	.	.	.	.
.	.	8G/	.	.	.	.	.
.	.	2A/	.	.	.	.	.
*	*	*	*	*Xlig	*	*	*
2BB-/	-te	1B-	-te	1f	-te	2dd\	-te
4B-y\	che	.	.	.	.	4dd\	che
!LO:SIC:v:t=custos A	!	!	!	!	!	!	!
4B-\	ſi	.	.	.	.	4dd\	ſi
!LO:LB:g=original	!	!	!	!	!	!	!
=22-	=22-	=22-	=22-	=22-	=22-	=22-	=22-
*xywh-#192:4552,2363,3320,728	*	*	*	*	*	*	*
4A\	chia-	4c/	che	2r	.	2ff\	chia-
4B-\	-ma	4d\	fi	.	.	.	.
!	!	!	!	!	!	!LO:SIC:v:t=custos dd	!
2c\	vi-	2e\	chia-	4g\	che	2eeny\	-ma
.	.	.	.	4g\	fi	.	.
!	!	!	!	!	!	!LO:LB:g=original	!
*	*	*	*	*	*	*xywh-#648:4639,2272,3372,688	*
1d	-ta	4a\	-ma	4f#X\	chia-	1dd	vi-
.	.	2g\	vi-	4g\	-ma	.	.
.	.	.	.	2a\	vi-	.	.
.	.	4f#X\	.	.	.	.	.
=23-	=23-	=23-	=23-	=23-	=23-	=23-	=23-
!	!	!	!	!LO:SIC:v:t=custos a	!	!	!
2r	.	2g\	-ta	1b-	-ta	0dd	-ta
1G	Piu	1d	Piu	.	.	.	.
*	*	*	*	*xywh-#496:4555,2833,3363,695	*	*	*
.	.	.	.	2r	.	.	.
1d\	l'al-	1fny\	l'al-	2a\	Piu	.	.
=24-	=24-	=24-	=24-	=24-	=24-	=24-	=24-
!	!	!	!	!LO:N:acc=#	!	!	!
.	.	.	.	2bn\	l'al-	2r	.
2c\	-trui	2e\	-trui	2cc\	-trui	2g/	Piu
*	*	*	*	*lig	*	*	*
0B-	fal-	4d\	fal-	1fny	fal-	1.dd	l'al-
.	.	4e\	.	.	.	.	.
.	.	1f\	.	.	.	.	.
=25-	=25-	=25-	=25-	=25-	=25-	=25-	=25-
.	.	.	.	1g	.	.	.
.	.	4e\	.	.	.	2ee\	-trui
!	!	!LO:SIC:v:t=custos c	!	!	!	!	!
.	.	4d\	.	.	.	.	.
!	!	!LO:LB:g=original	!	!	!	!	!
*	*	*xywh-#344:4659,2865,3431,721	*	*Xlig	*	*	*
0A	-lo	2c/	.	0a	-lo	1ff	fal-
.	.	1d\	.	.	.	.	.
=26-	=26-	=26-	=26-	=26-	=26-	=26-	=26-
.	.	.	.	.	.	2ee\	-lo
.	.	2c#X/	-lo	.	.	2.ff\	che'l
2.D/	che'l	2r	.	2.a\	che'l	.	.
.	.	.	.	.	.	4ff\	mio
.	.	2.d\	che'l	.	.	1ff\	mal
4D/	mio	.	.	4a\	mio	.	.
=27-	=27-	=27-	=27-	=27-	=27-	=27-	=27-
!	!	!	!	!LO:N:acc=#	!	!	!
2D/	mal	.	.	2bn\	mal	.	.
.	.	4d\	mio	.	.	.	.
2E/	mi	2G/	mal	1cc	mi	2ee\	mi
0F	do-	2A/	mi	.	.	1dd	do-
.	.	2.f\	do-	1b\	do-	.	.
=28-	=28-	=28-	=28-	=28-	=28-	=28-	=28-
.	.	.	.	.	.	0.cc	-le
.	.	8e\	.	.	.	.	.
.	.	8d\	.	.	.	.	.
.	.	4cny/	.	1a	-le	.	.
.	.	4d\	.	.	.	.	.
0C	-le	2e\	.	.	.	.	.
.	.	1f\	.	4g\	.	.	.
.	.	.	.	4f\	.	.	.
=29-	=29-	=29-	=29-	=29-	=29-	=29-	=29-
.	.	.	.	1g	.	.	.
.	.	2e\	-le	.	.	.	.
2r	.	2r	.	2r	.	2r	.
1F\	Che	1f\	Che	1a\	Che	1cc\	Che
=30-	=30-	=30-	=30-	=30-	=30-	=30-	=30-
2G\	pie-	2d\	pie-	2g\	pie-	2b-ny/	pie-
1A	-ta	1c#X	-tà	1e	-tà	1a	-tà
=31-	=31-	=31-	=31-	=31-	=31-	=31-	=31-
!LO:SIC:v:t=custos C	!	!	!	!	!	!	!
1D	vi-	4d\	vi-	4f\	vi-	1a	vi-
.	.	4e\	.	4g\	.	.	.
.	.	4f\	.	4a\	.	.	.
!	!	!LO:SIC:v:t=custos e	!	!LO:SIC:v:t=custos g	!	!	!
.	.	4d\	.	4f\	.	.	.
!LO:LB:g=original	!	!LO:LB:g=original	!	!	!	!	!
*xywh-#192:4479,2935,3413,697	*	*xywh-#344:4690,3452,3369,659	*	*xywh-#496:4514,3363,3518,726	*	*	*
1C	-ua e'l	2e\	.	2g\	-ua	2.cc\	-ua e'l
.	.	2.g\	-ua e'l	2e/	e'l	.	.
.	.	.	.	.	.	4cc\	mio
=32-	=32-	=32-	=32-	=32-	=32-	=32-	=32-
2c\	mio	.	.	2g\	mio	1cc	fi-
.	.	2e\	mio	.	.	.	.
2A\	fi-	.	.	2a\	fi-	.	.
.	.	2f\	fi-	.	.	.	.
2B-\	-do	.	.	2f\	-do	2dd\	-do
.	.	2d\	-do	.	.	.	.
!	!	!	!	!	!	!LO:SIC:v:t=custos a	!
2G\	ſoe-	.	.	2g\	ſoc-	2b-/	ſoc-
.	.	4e\	ſoc-	.	.	.	.
!	!	!	!	!	!	!LO:LB:g=original	!
=33-	=33-	=33-	=33-	=33-	=33-	=33-	=33-
*	*	*	*	*	*	*xywh-#648:4629,2796,3341,699	*
1A	-cor-	4c#X/	-cor-	1e	-cor-	1a	-cor-
.	.	2d\	.	.	.	.	.
.	.	4c#X/	.	.	.	.	.
2D/	-ſo	2d\	-ſo	2.f\	-ſo	1a	-ſo
2.d\	Ve-	2.f\	Ve-	.	.	.	.
.	.	.	.	4g\	.	.	.
=34-	=34-	=34-	=34-	=34-	=34-	=34-	=34-
.	.	.	.	0a	.	0r	.
4d\	-dem'	4f\	-dem'	.	.	.	.
1d	ar-	1f	ar-	.	.	.	.
4c\	-der	4e\	-der	.	.	.	.
4B-\	nel	4d\	nel	.	.	.	.
=35-	=35-	=35-	=35-	=35-	=35-	=35-	=35-
2A\	fo-	2c#X/	fo-	2r	.	2r	.
2G\	-co	2d\	-co	2.b-y\	Ve-	2.dd\	Ve-
2r	.	1r	.	.	.	.	.
.	.	.	.	4b-\	-dem'	4dd\	-dem'
2G\	&	.	.	1b-\	ar-	1dd\	ar-
=36-	=36-	=36-	=36-	=36-	=36-	=36-	=36-
2B-\	non	1r	.	.	.	.	.
2c\	m'a-	.	.	4a\	-der	4cc\	-der
.	.	.	.	4g\	nel	4b-/	nel
1d	-i-	2r	.	1f	fo-	2a/	fo-
.	.	2.a\	Ve-	.	.	2f/	-co e
=37-	=37-	=37-	=37-	=37-	=37-	=37-	=37-
1A	-ta	.	.	2e/	-co e	1cc	non
.	.	4a\	-dem'	.	.	.	.
!	!	!LO:SIC:v:t=custos g	!	!	!	!	!
.	.	1a	ar-	1f	nõ(n)	.	.
!LO:SIC:v:t=custos D	!	!	!	!	!	!	!
1r	.	.	.	.	.	2dd\	m'a-
!	!	!LO:LB:g=original	!	!	!	!	!
*	*	*xywh-#344:4741,3988,3317,618	*	*	*	*	*
.	.	4g\	-der	1c/	m'a-	1ee\	-i-
.	.	4f\	nel	.	.	.	.
!LO:LB:g=original	!	!	!	!	!	!	!
=38-	=38-	=38-	=38-	=38-	=38-	=38-	=38-
*xywh-#192:4479,3435,3476,759	*	*	*	*	*	*	*
2r	.	4e\	ſo-	.	.	.	.
.	.	4e\	-co e	.	.	.	.
1D	e	1f	non	2d/	-i-	2a/	-ta
.	.	.	.	1A	-ta	2r	.
1F\	no	2cny/	m'a-	.	.	2.a/	Ve-
=39-	=39-	=39-	=39-	=39-	=39-	=39-	=39-
.	.	2d\	-i-	2r	.	.	.
.	.	.	.	.	.	4a/	-dem'
2C/	m'a-	2e\	-ta	4r	.	1a	ar-
!	!	!	!	!LO:SIC:v:t=custos f	!	!	!
.	.	.	.	4e/	e	.	.
*	*	*	*	*xywh-#496:4555,3923,3404,716	*	*	*
1D	-i-	1r	.	1f	non	.	.
.	.	.	.	.	.	4g/	-der
.	.	.	.	.	.	4f/	nel
=40-	=40-	=40-	=40-	=40-	=40-	=40-	=40-
1A	-ta	2.a\	Ve-	1c	m'a-	2e/	fo-
!	!	!	!	!	!	!LO:SIC:v:t=custos ff	!
.	.	.	.	.	.	1a	-co
.	.	4e\	-dem'	.	.	.	.
2r	.	1f	ar-	1d	-i-	.	.
!	!	!	!	!	!	!LO:LB:g=original	!
*	*	*	*	*	*	*xywh-#648:4629,3382,3300,678	*
2.d\	Ve-	.	.	.	.	2.ff\	Ve-
=41-	=41-	=41-	=41-	=41-	=41-	=41-	=41-
.	.	1f	-der	0a	-ta	.	.
4d\	-dem'	.	.	.	.	4ff\	-dem'
1d	ar-	.	.	.	.	1ff	ar-
.	.	1r	.	.	.	.	.
4c\	-der	.	.	.	.	4ee\	-der
4B-\	nel	.	.	.	.	4dd\	nel
=42-	=42-	=42-	=42-	=42-	=42-	=42-	=42-
2A\	fo-	2r	.	2r	.	2cc#X\	fo-
2G\	-co	2.g\	Ve-	2.b-\	Ve-	2dd\	-co e
1r	.	.	.	.	.	0.dd	nõ(n)
.	.	4g\	-dem'	4b-\	-dem'	.	.
.	.	1g\	ar-	1b-\	ar-	.	.
=43-	=43-	=43-	=43-	=43-	=43-	=43-	=43-
1G	&	.	.	.	.	.	.
.	.	4f\	-der	4a\	-der	.	.
.	.	4e\	nel	4g\	nel	.	.
1B-	non	2d\	fo-	4f\	fo-	.	.
.	.	.	.	4f\	-co e	.	.
!	!	!LO:SIC:v:t=custos f	!	!	!	!	!
.	.	2d\	-co e	1b-\	non	.	.
!	!	!LO:LB:g=original	!	!	!	!	!
=44-	=44-	=44-	=44-	=44-	=44-	=44-	=44-
*	*	*xywh-#344:4669,4493,3472,731	*	*	*	*	*
1F	m'a-	2.f\	non	.	.	1ccny	m'a-
.	.	.	.	2a\	m'a-	.	.
.	.	4e\	m'a-	.	.	.	.
1G	-i-	1d	-i-	1g	-i-	1b-	-i-
=45-	=45-	=45-	=45-	=45-	=45-	=45-	=45-
1D	-ta	4d\	-ta	2f\	-ta	1a	-ta
.	.	4e\	.	.	.	.	.
.	.	4f\	.	2.d/	Ve-	.	.
.	.	4g\	.	.	.	.	.
1r	.	1a	.	.	.	2.ff\	Ve-
.	.	.	.	4d/	-dem'	.	.
.	.	.	.	1d/	ar-	.	.
.	.	.	.	.	.	4ff\	-dem'
=46-	=46-	=46-	=46-	=46-	=46-	=46-	=46-
1D	&	2r	.	.	.	2ff\	ar-
.	.	1a	e	4c/	-der	4ee\	-der
!	!	!	!	!LO:SIC:v:t=custos A	!	!	!
.	.	.	.	4B-/	nel	4dd\	nel
*	*	*	*	*xywh-#496:4555,4504,3331,674	*	*	*
1F	non	.	.	4A/	fo-	4cc\	fo-
.	.	.	.	4A/	-co e	4f/	-co e
.	.	1f\	non	1a\	non	1cc\	non
=47-	=47-	=47-	=47-	=47-	=47-	=47-	=47-
1C	m'a-	.	.	.	.	.	.
.	.	2e\	m'a-	2g\	m'ai-	2cc\	m'a-
1D	-i-	1d	-i-	1f	-ta.	1a	-i-
=48-	=48-	=48-	=48-	=48-	=48-	=48-	=48-
00AA	-ta.	00c#X	-ta.	00e	.	00a	-ta.
==	==	==	==	==	==	==	==
*-	*-	*-	*-	*-	*-	*-	*-
!!!system-decoration: [(s1,s2,s3,s4)]
!!!ENC: Andrzej Gręziak
!!!END: 2022-06-28
!!!ENC: Natalia Wrzos
!!!END: 2022-07-13
!!!YEC: Copyright 2022 Narodowy Instytut Fryderyka Chopina (https://polishscores.org)
!!!YEM: License CC-BY-4.0 (https://creativecommons.org/licenses/by/4.0)
!!!IIIF: https://repozytorium.nifc.pl/islandora/object/pl-gd%3A57883/datastream/IIIF/view
!!!ENC-IIIF: Zuzanna Daniec
!!!END-IIIF: 2022-09-14
